!!!!SEGMENT: pl-wtm--r-45-n_noskowski-zygmunt--kazdy-po-swojemu-kwartet-humorystyczny.krn
!!!cenid: 18xx:2278
!!!COM: Noskowski, Zygmunt
!!!COM-rismid: pe106604
!!!CDT: 1846/05/02-1909/07/23
!!!CNT: Polish
!!!OTL: Każdy po swojemu - Kwartet humorystyczny
!!!PDT:
!!!AGN: Secular
!!!SMS-siglum: PL-Wtm
!!!SMS-shelfmark: R 45/N
!!!SMS-shelfwork: W
!!!SMS-variant:
!!!SMS-altvar:
!!!NIFC-rismid: 1001142384
!!!URL-scan: http://repozytorium.nifc.pl/skany/pl-wtm-nut--r45n
!!!ONB-nifc: UWAGA: bez podziału na części
**kern	**dynam	**kern	**dynam	**kern	**dynam	**kern	**dynam
*part4	*part4	*part3	*part3	*part2	*part2	*part1	*part1
*staff4	*	*staff3	*	*staff2	*	*staff1	*
*I"Cello	*	*I"Viola	*	*I"Violino 2do	*	*I"Violino Io	*
*I'vlc	*	*I'vla	*	*I'vl 2	*	*I'vl 1	*
*clefF4	*	*clefC3	*	*clefG2	*	*clefG2	*
*k[f#c#]	*	*k[f#c#]	*	*k[f#c#]	*	*k[f#c#]	*
*M6/8	*	*M6/8	*	*M6/8	*	*M6/8	*
!LO:TX:a:i:t=Moderato cantabile	!	!LO:TX:a:i:t=Moderato cantabile	!	!LO:TX:a:i:t=Moderato cantabile	!	!LO:TX:a:i:t=Moderato cantabile	!
8r	.	8r	.	8r	.	8A/	mf
=1	=1	=1	=1	=1	=1	=1	=1
!	!LO:DY:b:rj	!	!LO:DY:b:rj	!	!LO:DY:b:rj	!	!
4.DD/	p	2.A/	p	(<4.d/	p	4.f#/	.
(<4EE/	.	.	.	4.c#/)	.	(<4g/	.
8GG/)	.	.	.	.	.	8e/)	.
=2	=2	=2	=2	=2	=2	=2	=2
(<4FF#/	.	(<4A/	.	(<4d/	.	[<4.a/	.
8AA/)	.	8G/)	.	8c#/)	.	.	.
4.D\	.	(<8F#/L	.	4.d/	.	8a/L]	.
.	.	8B/	.	.	.	(<8g/	.
.	.	8A/J)	.	.	.	8f#/J)	.
=3	=3	=3	=3	=3	=3	=3	=3
4.BB/	.	[<4.G/	.	(<8d/L	.	4.dd\	.
.	.	.	.	8e/	.	.	.
.	.	.	.	8d/J)	.	.	.
4.AA/	.	4G/]	.	(<4e/	.	(>8cc#\L	.
.	.	.	.	.	.	(<16qqdd/LL	.
.	.	.	.	.	.	16qqcc#/JJ	.
.	.	.	.	.	.	8b\)	.
.	.	8A/	.	8g/)	.	8cc#\J)	.
!LO:LB:g=original	!	!LO:LB:g=original	!	!	!	!	!
=4	=4	=4	=4	=4	=4	=4	=4
[>4.D\	.	(<8A/L	.	[<4.f#/	.	4.dd\	.
.	.	(<8qc#	.	.	.	.	.
.	.	8B/)	.	.	.	.	.
.	.	8A/J)	.	.	.	.	.
8D\]	.	(>8d\L	.	8f#/L]	.	4.f#/	.
8r	.	8c#\	.	(<8e/	.	.	.
8r	.	8B\J)	.	8d/J)	.	.	.
!	!	!	!	!LO:LB:g=original	!	!LO:LB:g=original	!
=5	=5	=5	=5	=5	=5	=5	=5
4.D\	.	4.B/	.	(<8e/L	.	4.g#X/	<
.	.	.	.	8f#/	.	.	.
.	.	.	.	8e/J)	<	.	.
!	!LO:HP:b:t=cresc.	!	!LO:HP:b:t=cresc.	!	!	!	!
4.C#/	<	4.A/	<	(<8e/L	.	4.a/	.
.	.	.	.	8f#/	.	.	.
.	.	.	.	8e/J)	.	.	.
=6	=6	=6	=6	=6	=6	=6	=6
4.GG#X/	.	4.B/	.	(<8e/L	.	4.b\	.
.	.	.	.	8f#/	.	.	.
.	.	.	.	8e/J)	.	.	.
4.AA/	.	4.c#\	.	(<8e/L	.	(>4ee\	.
.	.	.	.	8a/	.	.	.
.	.	.	.	8e/J)	.	8a/)	.
=7	=7	=7	=7	=7	=7	=7	=7
4.EE/	.	(>8e\L	.	4.g#X/	.	[>4.cc#\	.
.	.	8d#X\	.	.	.	.	.
.	.	8dn\J)	.	.	.	.	.
(<4EE/	.	(>4d\	.	(<8f#/L	.	8cc#\L]	.
.	.	.	.	8g#/	.	(>8b\	.
8AA/)	.	8c#\)	.	8e/J)	.	8a\J)	.
!LO:LB:g=original	!	!LO:LB:g=original	!	!	!	!	!
=8	=8	=8	=8	=8	=8	=8	=8
!	!	!	!LO:HP:b	!	!LO:HP:b	!	!
4.BB/	.	4.B/	>	4.d/	>	4.gn/	.
!	!LO:HP:b	!	!	!	!	!	!LO:HP:b
4.C#/	>]	4.A/	]]	4.e/	]]	(<4b/	>
.	.	.	.	.	.	8g/)	]]
=9	=9	=9	=9	=9	=9	=9	=9
!LO:TX:a:t=P:problem:"A" zapisane niebieską kredką	!	!LO:TX:a:t=P:problem:"A" zapisane niebieską kredką	!	!LO:TX:a:t=P:problem:"A" zapisane niebieską kredką	!	!LO:TX:a:t=P:problem:"A" zapisane niebieską kredką	!
!LO:TX:a:i:t=A:color=blue	!LO:DY:b:rj	!LO:TX:a:i:t=A:color=blue	!LO:DY:b:rj	!LO:TX:a:i:t=A:color=blue	!LO:DY:b:rj	!LO:TX:a:i:t=A:color=blue	!LO:DY:b:rj
4.D\	p	8A'/L	p	(<4.d/	p	4.f#/	p
.	.	16A'/L	.	.	.	.	.
.	.	16B'/J	.	.	.	.	.
.	.	[<8A^^>/J	.	.	.	.	.
(>4E\	.	8A/L]	.	4.c#/)	.	(<4g/	.
.	.	16A'/L	.	.	.	.	.
.	.	16B'/J	.	.	.	.	.
8G\)	.	[<8A^^>/J	.	.	.	8e/)	.
!	!	!	!	!LO:LB:g=original	!	!LO:LB:g=original	!
=10	=10	=10	=10	=10	=10	=10	=10
4.F#\	.	8A/L]	.	4.d/	.	[<4.a/	.
.	.	16A'/L	.	.	.	.	.
.	.	16B'/J	.	.	.	.	.
.	.	[<8A^^>/J	.	.	.	.	.
4.D\	.	8A/L]	.	(<8f#/L	.	8a/L]	.
.	.	16A'/L	.	8e/	.	(<8g/	.
.	.	16B'/J	.	.	.	.	.
.	.	(<8A^^>/J	.	8d/J)	.	8f#/J)	.
=11	=11	=11	=11	=11	=11	=11	=11
4.BB/	.	8G/L)	.	4.d/	.	4.dd\	.
.	.	16G'/L	.	.	.	.	.
.	.	16A'/J	.	.	.	.	.
.	.	[<8G^^>/J	.	.	.	.	.
4.AA/	.	8G/L]	.	4.e/	.	(>8cc#\L	.
.	.	.	.	.	.	(<16qqdd/LL	.
.	.	.	.	.	.	16qqcc#/JJ	.
.	.	16G'/L	.	.	.	8b\)	.
.	.	16A'/J	.	.	.	.	.
.	.	(<8G^^>/J	.	.	.	8cc#\J)	.
!LO:LB:g=original	!	!LO:LB:g=original	!	!	!	!	!
=12	=12	=12	=12	=12	=12	=12	=12
4.DD/	.	8F#/L)	.	[<4.d/	.	4.dd\	.
.	.	16F#'/L	.	.	.	.	.
.	.	16G'/J	.	.	.	.	.
.	.	[<8F#^^>/J	.	.	.	.	.
!	!	!	!LO:HP:b	!	!	!	!LO:HP:b
4D\	.	8F#/L]	<	4d/]	.	4f#/	<
.	.	16F#'/L	.	.	.	.	.
.	.	16A'/J	.	.	.	.	.
8r	.	[>8d^^>/J	[[	8r	.	8f#/	[[
=13	=13	=13	=13	=13	=13	=13	=13
!	!LO:DY:b:rj	!	!LO:DY:b	!	!LO:DY:b:rj	!	!LO:DY:b
(>4.F#\	mf	8d\L]	mf	(<4.a/	mf	4.ccn\	mf
.	.	16d'\L	.	.	.	.	.
.	.	16e'\J	.	.	.	.	.
.	.	[>8d^^>\J	.	.	.	.	.
8G\)	.	8d\]	.	8g/)	.	(<8b/L	.
8r	.	8r	.	8r	.	8a/	.
8r	.	8r	.	8r	.	8g/J)	.
!	!	!	!	!LO:LB:g=original	!	!LO:LB:g=original	!
=14	=14	=14	=14	=14	=14	=14	=14
(>4.E\	.	8d'\L	.	(<4g/	.	(<4b-X/	.
.	.	16d'\L	.	.	.	.	.
.	.	16e'\J	.	.	.	.	.
.	.	[>8d^^>\J	.	8B-X/)	.	8g/)	.
8F#\)	.	8d\]	.	8A/	.	(<8a/L	.
8r	.	8r	.	8r	.	8g/	.
8r	.	8r	.	8r	.	8f#/J)	.
!	!	!LO:LB:g=original	!	!	!	!	!
=15	=15	=15	=15	=15	=15	=15	=15
!	!	!	!	!	!	!	!LO:HP:b
!	!LO:DY:b:rj	!	!LO:DY:b:rj	!	!LO:DY:b:rj	!	!LO:DY:b:rj
4.AA/	f	(>4F#/	f	(<4d/	f	(>8a/	f <
.	.	.	.	.	.	4ff#\)	.
.	.	8d\)	.	8a/)	.	.	.
4.AA/	.	(<4B/	.	(<4g/	.	(>8gg\L	[
.	.	.	.	.	.	8ee\	.
.	.	8G/)	.	8e/)	.	8b\J)	.
=16	=16	=16	=16	=16	=16	=16	=16
!	!	!	!LO:HP:b	!	!LO:HP:b	!	!LO:HP:b
(>4.AA/	.	(>4G/	>	(<4e/	>	4.cc#t\	>
.	.	8e\)	.	8g/)	.	.	.
.	.	.	.	.	.	(<16qqb/LL	]
.	.	.	.	.	.	16qqcc#/JJ	.
4D\)	.	4d\	]	4f#/	]	4dd\)	.
!LO:TX:b:i:t=V. S.	!	!LO:TX:b:i:t=V. S.	!	!LO:TX:b:i:t=V. S.	!	!LO:TX:b:i:t=V. S.	!
8r;>	.	8r;>	.	8r;>	.	8r;>	.
!LO:PB:g=original	!	!LO:PB:g=original	!	!LO:PB:g=original	!	!LO:PB:g=original	!
=17||	=17||	=17||	=17||	=17||	=17||	=17||	=17||
*k[f#c#g#]	*	*k[f#c#g#]	*	*k[f#c#g#]	*	*k[f#c#g#]	*
*M3/8	*	*M3/8	*	*M3/8	*	*M3/8	*
!LO:TX:a:i:t=Tempo di Mazur	!	!LO:TX:a:i:t=Tempo di Mazur	!	!LO:TX:a:i:t=Tempo di Mazur	!LO:DY:b:rj	!LO:TX:a:i:t=Tempo di Mazur.	!
.	.	.	.	(<8qff#/	f	.	.
!	!LO:DY:b:rj	!	!	!	!	!	!
8BB^</	f	8r	.	8ee\)	.	8r	f
*	*	*	*	*	*	*tremolo	*
!	!	!	!LO:DY:b:rj	!	!	!	!
8r	.	8G#XL 8E/	f	8r	.	8eL 8d'/	.
.	.	.	.	(<8qff#/	.	.	.
8EE/	.	8G#J 8E/	.	8ee\)	.	8eJ 8d'/	.
=18	=18	=18	=18	=18	=18	=18	=18
.	.	.	.	(<8qff#/	.	.	.
8AA^</	.	8r	.	8ee\L)	.	8r	.
.	.	.	.	(<8qff#/	.	.	.
*	*	*tremolo	*	*	*	*	*
8r	.	8AL 8E'/	.	8ee\)	.	8eL 8c#'/	.
.	.	.	.	(<8qff#/	.	.	.
8EE/	.	8AJ 8E'/	.	8ee\J)	.	8eJ 8c#'/	.
=19	=19	=19	=19	=19	=19	=19	=19
.	.	.	.	(8qff#/	.	.	.
8BB^</	.	8r	.	16ee\LL)	.	8r	.
.	.	.	.	16dd\JJ	.	.	.
8r	.	8G#XL 8E/	.	8b\L	.	8eL 8d'/	.
8EE/	.	8G#J 8E/	.	16dd\L	.	8eJ 8d'/	.
.	.	.	.	16ff#\JJ	.	.	.
=20	=20	=20	=20	=20	=20	=20	=20
.	.	.	.	(<8qff#/	.	.	.
4AA/	.	8r	.	4.ee^^>\)	.	8r	.
.	.	8AL 8E/	.	.	.	8eL 8c#/	.
8r	.	8AJ 8E/	.	.	.	8eJ 8c#/	.
=21	=21	=21	=21	=21	=21	=21	=21
.	.	.	.	(<8qaa/	.	.	.
4EE/	.	8r	.	16.gg#\LL)	.	8r	.
.	.	.	.	32ee\JJk	.	.	.
.	.	8BL 8E/	.	8gg#\L	.	8g#XL 8d/	.
8r	.	8BJ 8E/	.	16gg#\L	.	8g#J 8d/	.
.	.	.	.	16bb\JJ	.	.	.
=22	=22	=22	=22	=22	=22	=22	=22
.	.	.	.	(<8qbb/	.	.	.
4AA/	.	8r	.	4aa\)	.	8r	.
.	.	8AL 8E/	.	.	.	8aL 8c#/	.
8r	.	8AJ 8E/	.	16gg#\LL	.	8aJ 8c#/	.
.	.	.	.	16aa\JJ	.	.	.
!	!	!	!	!LO:LB:g=original	!	!	!
=23	=23	=23	=23	=23	=23	=23	=23
.	.	.	.	(<8qccc#/	.	.	.
4EE/	.	8r	.	16.bb\LL)	.	8r	.
.	.	.	.	32gg#\JJk	.	.	.
.	.	8BL 8E/	.	8ee\L	.	8g#XL 8d/	.
8r	.	8BJ 8E/	.	16bb\L	.	8g#J 8d/	.
.	.	.	.	16ddd\JJ	.	.	.
=24	=24	=24	=24	=24	=24	=24	=24
4AA/	.	8r	.	8.ccc#\L	.	8r	.
.	.	8AL 8E/	.	.	.	8aL 8c#/	.
.	.	.	.	16aa\L	.	.	.
8r	.	8AJ 8E/	.	16gg#\	.	8aJ 8c#/	.
.	.	.	.	16ff#\JJ	.	.	.
*	*	*Xtremolo	*	*	*	*Xtremolo	*
!	!	!	!	!LO:TX:a:t=P:problem:"B" zapisane niebieską kredką	!	!	!
!	!	!	!	!LO:TX:a:i:t=B:color=blue	!	!	!
!LO:LB:g=original	!	!LO:LB:g=original	!	!	!	!LO:LB:g=original	!
=25	=25	=25	=25	=25	=25	=25	=25
!	!	!LO:TX:b:i:t=marcato	!	!	!	!	!
.	.	.	.	(<8qff#/	.	.	.
!LO:TX:a:t=P:problem:"B" zapisane niebieską kredką	!	!LO:TX:a:t=P:problem:"B" zapisane niebieską kredką	!	!	!	!LO:TX:a:t=P:problem:"B" zapisane niebieską kredką	!
!LO:TX:a:i:t=B:color=blue	!	!LO:TX:a:i:t=B:color=blue	!	!	!	!LO:TX:a:i:t=B:color=blue	!
8BB^</	.	8.e^>\L	.	8ee\)	.	8r	.
8r	.	.	.	8r	.	8g#L 8d/	.
.	.	16f#'\L	.	.	.	.	.
.	.	.	.	(<8qff#/	.	.	.
8EE/	.	16e'\	.	8ee\)	.	8g#J 8B/	.
.	.	16d'\JJ	.	.	.	.	.
=26	=26	=26	=26	=26	=26	=26	=26
.	.	.	.	(<8qff#/	.	.	.
8AA/	.	8c#^</L	.	8ee\L)	.	8r	.
.	.	.	.	(<8qff#/	.	.	.
*	*	*	*	*	*	*tremolo	*
8r	.	8A^</	.	8ee\)	.	8aL 8c#/	.
.	.	.	.	(<8qff#/	.	.	.
8r	.	8A^</J	.	8ee\J)	.	8aJ 8c#/	.
=27	=27	=27	=27	=27	=27	=27	=27
.	.	.	.	(<8qff#/	.	.	.
8EE/	.	8B^</L	.	16.ee\LL)	.	8r	.
.	.	.	.	32dd\JJk	.	.	.
8r	.	8E'/	.	8b\L	.	8g#L 8d/	.
8r	.	8E'/J	.	16dd\L	.	8g#J 8d/	.
.	.	.	.	16ff#\JJ	.	.	.
=28	=28	=28	=28	=28	=28	=28	=28
.	.	.	.	(<8qff#/	.	.	.
4AA^</	.	8c#^</L	.	4.ee\)	.	8r	.
.	.	8A'/	.	.	.	8aL 8c#/	.
8r	.	8A'/J	.	.	.	8aJ 8c#/	.
!	!	!	!	!LO:LB:g=original	!	!	!
=29	=29	=29	=29	=29	=29	=29	=29
.	.	.	.	(<8qaa/	.	.	.
4EE/	.	8.e^>\L	.	16.gg#\LL)	.	8r	.
.	.	.	.	32ee\JJk	.	.	.
.	.	.	.	8gg#\L	.	8g#L 8d/	.
.	.	16f#\L	.	.	.	.	.
8r	.	16e\	.	16gg#\L	.	8g#J 8B/	.
.	.	16d\JJ	.	16bb\JJ	.	.	.
=30	=30	=30	=30	=30	=30	=30	=30
8AA/	.	8c#^</L	.	16.aa\LL	.	8r	.
.	.	.	.	32aa\JJk	.	.	.
8r	.	8A'/	.	8ee\L	.	8eL 8c#/	.
8EE/	.	8G#J 8E/	.	16gg#\L	.	8eJ 8d/	.
.	.	.	.	16bb\JJ	.	.	.
=31	=31	=31	=31	=31	=31	=31	=31
4AA/	.	4A 4E/	.	16.aa\LL	.	4e 4c#/	.
.	.	.	.	32aaJJk 32a\	.	.	.
.	.	.	.	8aaL 8a\	.	.	.
8r	.	8A/	.	8aaJ 8a\	.	8r	.
=32	=32	=32	=32	=32	=32	=32	=32
4.r	.	8A/L	.	8aaL 8a^>\	.	8r	.
!LO:TX:a:t=1.	!	!	!	!	!	!	!
.	.	8A/J	.	8aa 8a^>\	.	8r	mf
.	.	8r	.	8aaJ 8a^>\	.	8A/	.
!	!	!LO:LB:g=original	!	!	!	!LO:LB:g=original	!
=33||	=33||	=33||	=33||	=33||	=33||	=33||	=33||
*k[f#c#gn]	*	*k[f#c#gn]	*	*k[f#c#gn]	*	*k[f#c#gn]	*
!LO:TX:t=P:problem:w źródle kasownik na wysokości ggn	!LO:DY:b:rj	!LO:TX:t=P:problem:w źródle kasownik na wysokości ggn	!	!LO:TX:t=P:problem:w źródle kasownik na wysokości ggn	!LO:DY:b:rj	!LO:TX:t=P:problem:w źródle kasownik na wysokości ggn	!
4.DD/	mf	8r	.	16.a\LL	mf	4.f#/	.
.	.	.	.	32dd\JJk	.	.	.
!	!	!	!LO:DY:b:rj	!	!	!	!
.	.	16A'/LL	mf	8dd\L	.	.	.
!	!	!LO:TX:b:t=1.	!	!	!	!	!
.	.	16B'/J	.	.	.	.	.
.	.	8A'/J	.	8dd\J	.	.	.
=34	=34	=34	=34	=34	=34	=34	=34
*	*	*rep	*	*	*	*	*
(<4EE/	.	8r	.	16.cc#\LL	.	(<4g/	.
.	.	.	.	32dd\JJk	.	.	.
!	!	!LO:TX:b:t=2.	!	!	!	!	!
.	.	16A'/LL	.	8ee\L	.	.	.
.	.	16B'/J	.	.	.	.	.
8GG/)	.	8A'/J	.	8cc#\J	.	8e/)	.
*	*	*Xrep	*	*	*	*	*
!	!	!	!	!LO:LB:g=original	!	!	!
=35	=35	=35	=35	=35	=35	=35	=35
*	*	*rep	*	*	*	*	*
(<8FF#/L	.	8r	.	16.dd\LL	.	[<4.a/	.
.	.	.	.	32ff#\JJk	.	.	.
!	!	!LO:TX:b:t=3.	!	!	!	!	!
8AA/	.	16A'/LL	.	8ee\L	.	.	.
.	.	16B'/J	.	.	.	.	.
8C#/J)	.	8A'/J	.	8gg\J	.	.	.
*	*	*Xrep	*	*	*	*	*
=36	=36	=36	=36	=36	=36	=36	=36
*	*	*rep	*	*	*	*	*
4.D\	.	8r	.	4.ff# 4.dd\	.	8a/L]	.
!	!	!LO:TX:b:t=4.	!	!	!	!	!
.	.	16A'/LL	.	.	.	(<8g/	.
.	.	16B'/J	.	.	.	.	.
.	.	8A'/J	.	.	.	8f#/J)	.
*	*	*Xrep	*	*	*	*	*
=37	=37	=37	=37	=37	=37	=37	=37
*	*	*rep	*	*	*	*	*
4.D\	.	8r	.	16.a\LL	.	4.dd\	.
.	.	.	.	32ff#JJk 32dd\	.	.	.
!	!	!LO:TX:b:t=5.	!	!	!	!	!
.	.	16A'/LL	.	8ff#L 8dd\	.	.	.
.	.	16B'/J	.	.	.	.	.
.	.	8A'/J	.	8ff#J 8dd\	.	.	.
*	*	*Xrep	*	*	*	*	*
=38	=38	=38	=38	=38	=38	=38	=38
*	*	*rep	*	*	*	*	*
4.AA/	.	8r	.	16.ee\LL	.	(>8cc#\L	.
.	.	.	.	32ff#\JJk	.	.	.
.	.	.	.	.	.	(<16qqdd/LL	.
.	.	.	.	.	.	16qqcc#/JJ	.
!	!	!LO:TX:b:t=6	!	!	!	!	!
.	.	16A'/LL	.	8gg\L	.	8b\)	.
.	.	16B'/J	.	.	.	.	.
.	.	8A'/J	.	8ee\J	.	8cc#\J)	.
*	*	*Xrep	*	*	*	*	*
=39	=39	=39	=39	=39	=39	=39	=39
4.D\	.	8r	.	16.ff#\LL	.	4.dd\	.
.	.	.	.	32aa\JJk	.	.	.
.	.	16B'/LL	.	8gg\L	.	.	.
.	.	16d'/J	.	.	.	.	.
.	.	8G/J	.	8bb\J	.	.	.
=40	=40	=40	=40	=40	=40	=40	=40
4.DD/	.	16A'/LL	.	4.aa\	.	4.f#/	.
.	.	16B'/	.	.	.	.	.
.	.	16A'/	.	.	.	.	.
.	.	16B'/J	.	.	.	.	.
.	.	8d/J	.	.	.	.	.
!	!	!	!	!	!	!LO:LB:g=original	!
=41	=41	=41	=41	=41	=41	=41	=41
!LO:TX:a:t=P:problem:"C" zapisane niebieską kredką	!	!LO:TX:a:t=P:problem:"C" zapisane niebieską kredką	!	!LO:TX:a:t=P:problem:"C" zapisane niebieską kredką	!	!LO:TX:a:t=P:problem:"C" zapisane niebieską kredką	!
!LO:TX:a:i:t=C:color=blue	!LO:DY:b:rj	!LO:TX:a:i:t=C:color=blue	!LO:DY:b:rj	!LO:TX:a:i:t=C:color=blue	!LO:DY:b:rj	!LO:TX:a:i:t=C:color=blue	!
4.EE/	p	16B'\LL	p	16ee\LL	p	4.g#X/	p
.	.	16d'\	.	16bb\JJ	.	.	.
.	.	16d'\	.	8bb\L	.	.	.
.	.	16e'\J	.	.	.	.	.
.	.	8d\J	.	8bb\J	.	.	.
!	!	!LO:LB:g=original	!	!LO:LB:g=original	!	!	!
=42	=42	=42	=42	=42	=42	=42	=42
4.AA/	.	16c#'\LL	.	16bb\LL	.	4.a/	.
.	.	16e'\	.	16aa\JJ	.	.	.
.	.	16c#'\	.	4ee\	.	.	.
.	.	16e'\	.	.	.	.	.
.	.	16c#'\	.	.	.	.	.
.	.	16e'\JJ	.	.	.	.	.
!LO:LB:g=original	!	!	!	!	!	!	!
=43	=43	=43	=43	=43	=43	=43	=43
4.E\	.	16g#X'\LL	.	16ee\LL	.	4.b\	.
.	.	16e'\	.	16ddd\JJ	.	.	.
.	.	16g#'\	.	8ddd\L	.	.	.
.	.	16f#'\J	.	.	.	.	.
.	.	8g#\J	.	8ddd\J	.	.	.
=44	=44	=44	=44	=44	=44	=44	=44
!	!	!	!	!	!LO:HP:b	!	!LO:HP:b
4AA/	.	16a'\LL	.	4.ccc#\	<[	(>4ee\	<
.	.	16f#'\	.	.	.	.	.
!	!	!	!LO:HP:b	!	!	!	!
.	.	16e'\	<	.	.	.	.
.	.	16c#'\J	.	.	.	.	.
8r	.	8e\J	[[	.	.	8a/)	[[
=45	=45	=45	=45	=45	=45	=45	=45
!LO:TX:b:i:t=pizz	!LO:DY:b:rj	!LO:TX:b:i:t=pizz	!LO:DY:b:rj	!	!LO:DY:b:rj	!	!LO:DY:b:rj
4A 4E 4AA\	f	4a 4gn 4c#\	f	16.aa\LL	f	[>4.cc#\	f
.	.	.	.	32eee\JJk	.	.	.
.	.	.	.	8eee\L	.	.	.
8r	.	8r	.	16eee\L	.	.	.
.	.	.	.	16aa\JJ	.	.	.
=46	=46	=46	=46	=46	=46	=46	=46
*rep	*	*rep	*	*	*	*	*
4A 4E 4AA\	.	4a 4gn 4c#\	.	16.eee\LL	.	8cc#\L]	.
.	.	.	.	32aa\JJk	.	.	.
.	.	.	.	8eee\L	.	(>8b\	.
8r	.	8r	.	16eee\L	.	8a\J)	.
.	.	.	.	16aa\JJ	.	.	.
*Xrep	*	*Xrep	*	*	*	*	*
=47	=47	=47	=47	=47	=47	=47	=47
*rep	*	*rep	*	*rep	*	*	*
4A 4E 4AA\	.	4a 4gn 4c#\	.	16.eee\LL	.	4.gn/	.
.	.	.	.	32aa\JJk	.	.	.
.	.	.	.	8eee\L	.	.	.
8r	.	8r	.	16eee\L	.	.	.
.	.	.	.	16aa\JJ	.	.	.
*Xrep	*	*Xrep	*	*Xrep	*	*	*
=48	=48	=48	=48	=48	=48	=48	=48
!	!	!LO:TX:b:i:t=arco	!	!LO:TUP:a:problem:klamra łukowa	!	!	!
!	!	!	!	!	!	!	!LO:HP:b
4.r	.	(<4c#/	.	24aa\LL	.	(<4b/	>
.	.	.	.	24bb\	.	.	.
!LO:TX:a:t=1.	!	!	!LO:HP:b	!	!	!	!
.	.	.	>	24aa\JJ	.	.	.
!	!	!	!	!	!LO:HP:b	!	!
.	.	.	.	8gg\L	>	.	.
.	.	8A/)	.	16ee\L	.	8g/)	]]
.	.	.	]]	16cc#\JJ	]]	.	.
!	!	!LO:LB:g=original	!	!LO:TUP:a:problem:klamra łukowa	!	!	!
=49	=49	=49	=49	=49	=49	=49	=49
!LO:TX:a:i:t=arco	!LO:DY:b:rj	!	!LO:DY:b:rj	!	!LO:DY:b:rj	!	!LO:DY:b:rj
4.DD/	p	16A'/LL	p	16.a\LL	p	4.f#/	p
.	.	16B'/	.	.	.	.	.
.	.	.	.	32dd\JJk	.	.	.
!	!	!LO:TX:b:t=1.	!	!	!	!	!
.	.	16A'/	.	8dd\L	.	.	.
.	.	16B'/J	.	.	.	.	.
.	.	8A'/J	.	8dd\J	.	.	.
!	!	!	!	!	!	!LO:LB:g=original	!
=50	=50	=50	=50	=50	=50	=50	=50
*	*	*rep	*	*	*	*	*
(<4EE/	.	16A'/LL	.	16.cc#\LL	.	(<4g/	.
.	.	16B'/	.	.	.	.	.
.	.	.	.	32dd\JJk	.	.	.
!	!	!LO:TX:b:t=2.	!	!	!	!	!
.	.	16A'/	.	8ee\L	.	.	.
.	.	16B'/J	.	.	.	.	.
8GG/)	.	8A'/J	.	8cc#\J	.	8e/)	.
*	*	*Xrep	*	*	*	*	*
=51	=51	=51	=51	=51	=51	=51	=51
*	*	*rep	*	*	*	*	*
(<8FF#/L	.	16A'/LL	.	16.dd\LL	.	[<4.a/	.
.	.	16B'/	.	.	.	.	.
.	.	.	.	32ff#\JJk	.	.	.
!	!	!LO:TX:b:t=3.	!	!	!	!	!
8AA/	.	16A'/	.	8ee\L	.	.	.
.	.	16B'/J	.	.	.	.	.
8C#/J)	.	8A'/J	.	8gg\J	.	.	.
*	*	*Xrep	*	*	*	*	*
=52	=52	=52	=52	=52	=52	=52	=52
*	*	*rep	*	*	*	*	*
4.D\	.	16A'/LL	.	4.ff# 4.dd\	.	8a/L]	.
.	.	16B'/	.	.	.	.	.
!	!	!LO:TX:b:t=4.	!	!	!	!	!
.	.	16A'/	.	.	.	(<8g/	.
.	.	16B'/J	.	.	.	.	.
.	.	8A'/J	.	.	.	8f#/J)	.
*	*	*Xrep	*	*	*	*	*
!LO:LB:g=original	!	!	!	!	!	!	!
=53	=53	=53	=53	=53	=53	=53	=53
*	*	*rep	*	*	*	*	*
4.D\	.	16A'/LL	.	16.a\LL	.	4.dd\	.
.	.	16B'/	.	.	.	.	.
.	.	.	.	32ff#JJk 32dd\	.	.	.
!	!	!LO:TX:b:t=5.	!	!	!	!	!
.	.	16A'/	.	8ff#L 8dd\	.	.	.
.	.	16B'/J	.	.	.	.	.
.	.	8A'/J	.	8ff#J 8dd\	.	.	.
*	*	*Xrep	*	*	*	*	*
=54	=54	=54	=54	=54	=54	=54	=54
*	*	*rep	*	*	*	*	*
4.AA/	.	16A'/LL	.	16.ee\LL	.	(>8cc#\L	.
.	.	16B'/	.	.	.	.	.
.	.	.	.	32ff#\JJk	.	.	.
.	.	.	.	.	.	(<16qqdd/LL	.
.	.	.	.	.	.	16qqcc#/JJ	.
!	!	!LO:TX:b:t=6.	!	!	!	!	!
.	.	16A'/	.	8gg\L	.	8b\)	.
.	.	16B'/J	.	.	.	.	.
.	.	8A'/J	.	8ee\J	.	8cc#\J)	.
*	*	*Xrep	*	*	*	*	*
=55	=55	=55	=55	=55	=55	=55	=55
!	!	!	!	!	!	!	!LO:HP:b
4.D\	.	16A'\LL	.	16.ff#\LL	.	4.dd\	<[
.	.	16d'\	.	.	.	.	.
!	!	!	!	!	!LO:HP:b	!	!
.	.	.	.	32aa\JJk	<	.	.
.	.	16B'\	.	8gg\L	.	.	.
.	.	16d'\J	.	.	.	.	.
.	.	8G\J	.	8bb\J	[[	.	.
=56	=56	=56	=56	=56	=56	=56	=56
!	!LO:HP:b	!	!LO:HP:b	!	!	!	!
4.DD/	<[	16A'/LL	<	4.aa\	.	4.f#/	.
.	.	16B'/	.	.	.	.	.
.	.	16A'/	.	.	.	.	.
.	.	16B'/J	.	.	.	.	.
.	.	8d'/J	[	.	.	.	.
!	!	!	!	!LO:LB:g=original	!	!	!
=57	=57	=57	=57	=57	=57	=57	=57
!LO:TX:a:i:t=D:color=blue	!	!LO:TX:a:i:t=D:color=blue	!	!LO:TX:a:i:t=D:color=blue	!	!LO:TX:a:i:t=D:color=blue	!LO:DY:b:rj
!LO:TX:a:t=P:problem:"D" zapisane niebieską kredką	!LO:DY:b:rj	!LO:TX:a:t=P:problem:"D" zapisane niebieską kredką	!LO:DY:b:rj	!LO:TX:a:t=P:problem:"D" zapisane niebieską kredką	!LO:DY:b:rj	!LO:TX:a:t=P:problem:"D" zapisane niebieską kredką	!
4.D\	mf	16f#'\LL	mf	16aa\LL	mf	4.ccn\	mf
.	.	16e'\	.	16ddd\JJ	.	.	.
.	.	16f#'\	.	8ddd\L	.	.	.
.	.	16a'\J	.	.	.	.	.
.	.	8f#'\J	.	8ddd\J	.	.	.
!	!	!LO:LB:g=original	!	!	!	!	!
=58	=58	=58	=58	=58	=58	=58	=58
4GG/	.	16g'\LL	.	16.ddd\LL	.	(<8b/L	.
.	.	16d'\J	.	.	.	.	.
.	.	.	.	32ccc#\JJk	.	.	.
.	.	8B\J	.	8ddd\L	.	8a/	.
8r	.	8r	.	8ddd#X\J	.	8g/J)	.
!	!	!	!	!	!	!LO:LB:g=original	!
=59	=59	=59	=59	=59	=59	=59	=59
4.AA/	.	16g'\LL	.	16eee\LL	.	(<4b-X/	.
.	.	16f#'\	.	16ddd#X\JJ	.	.	.
.	.	16g'\	.	8eee\L	.	.	.
.	.	16a'\J	.	.	.	.	.
!	!	!	!	!	!LO:HP:b	!	!
.	.	8c#\J	.	8aa\J	<	8g/)	.
=60	=60	=60	=60	=60	=60	=60	=60
4DD/	.	16d\LL	.	4.fff#\	.	(<8a/L	.
!	!	!	!	!	!	!	!LO:HP:b
.	.	16c#\	.	.	.	.	<
!	!	!	!LO:HP:b	!	!	!	!
.	.	16d\	<	.	[	8g/	.
.	.	16A\J	.	.	.	.	.
8r	.	8d\J	[[	.	.	8f#/J)	[[
=61	=61	=61	=61	=61	=61	=61	=61
!	!LO:DY:b:rj	!	!LO:DY:b:rj	!	!LO:DY:b:rj	!	!LO:DY:b:rj
4.D\	f	16d\LL	f	16aa\LL	f	(>8a/	f
.	.	16f#\	.	16ddd\JJ	.	.	.
.	.	16a\	.	8ddd\L	.	4ff#\)	.
.	.	16f#\J	.	.	.	.	.
.	.	8a\J	.	16ddd\L	.	.	.
.	.	.	.	16ccc#\JJ	.	.	.
=62	=62	=62	=62	=62	=62	=62	=62
4.GG/	.	16B\LL	.	16.eee\LL	.	(>8gg\L	.
.	.	16e\	.	.	.	.	.
.	.	.	.	32ddd\JJk	.	.	.
.	.	16a\	.	8bb\L	.	8ee\	.
.	.	16g\J	.	.	.	.	.
.	.	8e\J	.	8gg\J	.	8b\J)	.
!	!	!	!	!LO:LB:g=original	!	!	!
=63	=63	=63	=63	=63	=63	=63	=63
.	.	.	.	(<8qgg/	.	.	.
4.AA/	.	16g\LL	.	16.ff#\LL)	.	4.cc#t\	.
.	.	16a\	.	.	.	.	.
.	.	.	.	32ee\JJk	.	.	.
.	.	16g\	.	8aa\L	.	.	.
.	.	16a\	.	.	.	.	.
.	.	16g\	.	16ee\L	.	.	.
.	.	16a\JJ	.	16ff#\JJ	.	.	.
.	.	.	.	.	.	(<16qqb/LL	.
.	.	.	.	.	.	16qqcc#/JJ	.
!LO:LB:g=original	!	!LO:LB:g=original	!	!	!	!	!
=64	=64	=64	=64	=64	=64	=64	=64
8D/L	.	16f#\LL	.	8dd\L	.	4dd\)	.
.	.	16a\JJ	.	.	.	.	.
8F#J 8AA 8DD/	.	8f# 8A\	.	8dddJ 8ff# 8d\	.	.	.
8r	.	8r	.	8r	.	8r	.
=65||	=65||	=65||	=65||	=65||	=65||	=65||	=65||
*k[f#cn]	*	*k[f#cn]	*	*k[f#cn]	*	*k[f#cn]	*
!	!	!	!LO:DY:b:rj	!	!	!	!
!	!	!	!LO:HP:b	!	!	!	!
4.r	.	16d\LL	f >	1.r	.	4.r	.
!LO:TX:a:t=1.	!	!	!	!LO:TX:a:t=4	!	!LO:TX:a:t=1.	!
.	.	16e\JJ	.	.	.	.	.
.	.	8d\L	.	.	.	.	.
.	.	8B\J	]]	.	.	.	.
!	!	!	!	!	!	!LO:LB:g=original	!
=66	=66	=66	=66	=66	=66	=66	=66
!LO:TX:b:t=pizz	!LO:DY:b:rj	!	!LO:DY:b:rj	!	!	!LO:TX:b:t=pizz	!LO:DY:b:rj
4D\	mf	16c\LL	mf	.	.	4a 4f#/	p
.	.	16d\JJ	.	.	.	.	.
.	.	8c/L	.	.	.	.	.
8r	.	8A/J	.	.	.	8r	.
=67	=67	=67	=67	=67	=67	=67	=67
4A 4D\	.	8B/L	.	.	.	4dd 4g/	.
.	.	8G/	.	.	.	.	.
8r	.	8G/J	.	.	.	8r	.
=68	=68	=68	=68	=68	=68	=68	=68
4D\	.	8A/L	.	.	.	4f# 4c/	.
.	.	8D/	.	.	.	.	.
8r	.	8D/J	.	.	.	8r	.
=69	=69	=69	=69	=69	=69	=69	=69
!	!	!	!	!	!LO:DY:b:rj	!	!
4D 4GG/	.	8B/L	.	16dd\LL	mf	4b 4d 4G/	.
.	.	.	.	16gg\JJ	.	.	.
.	.	8G/	.	8gg\L	.	.	.
8r	.	8G/J	.	8ff#\J	.	8r	.
=70	=70	=70	=70	=70	=70	=70	=70
*rep	*	*	*	*	*	*	*
.	.	.	.	(<8qff#/	.	.	.
4D 4GG/	.	8A/L	.	4.cc\)	.	4f# 4c/	.
.	.	8D/	.	.	.	.	.
8r	.	8D/J	.	.	.	8r	.
!	!	!LO:LB:g=original	!	!	!	!	!
*Xrep	*	*	*	*	*	*	*
=71	=71	=71	=71	=71	=71	=71	=71
*rep	*	*	*	*	*	*rep	*
4D 4GG/	.	8.d\L	.	16cc\LL	.	4f# 4c/	.
.	.	.	.	16gg\JJ	.	.	.
.	.	.	.	8gg\L	.	.	.
.	.	16e\L	.	.	.	.	.
8r	.	16d\	.	8ff#\J	.	8r	.
.	.	16c\JJ	.	.	.	.	.
*Xrep	*	*	*	*	*	*Xrep	*
=72	=72	=72	=72	=72	=72	=72	=72
*rep	*	*	*	*	*	*	*
.	.	.	.	(<8qff#/	.	.	.
4D 4GG/	.	8B/L	.	4.b\)	.	4g 4B/	.
.	.	8G/	.	.	.	.	.
8r	.	8G/J	.	.	.	8r	.
*Xrep	*	*	*	*	*	*	*
!	!	!	!	!LO:LB:g=original	!	!	!
=73	=73	=73	=73	=73	=73	=73	=73
!LO:TX:a:t=1.	!	!	!	!	!	!LO:TX:a:t=3	!
4.r	.	8.g\L	.	16b\LL	.	4.r	.
.	.	.	.	16ee\JJ	.	.	.
.	.	.	.	8ee\L	.	.	.
.	.	16a\L	.	.	.	.	.
.	.	16g\	.	8b\J	.	.	.
.	.	16fn\JJ	.	.	.	.	.
!LO:LB:g=original	!	!	!	!	!	!	!
=74	=74	=74	=74	=74	=74	=74	=74
.	.	.	.	(<8qdd/	.	.	.
8r	.	8e\L	.	16cc\LL)	.	4.ryy	.
.	.	.	.	16b\JJ	.	.	.
8r	.	8c\	.	8cc\L	.	.	.
!LO:TX:a:i:t=arco	!LO:DY:b:rj	!	!	!	!	!	!
8A\	f	8g\J	.	8cc#X\J	.	.	.
=75	=75	=75	=75	=75	=75	=75	=75
4D\	.	4f#\	.	16dd\LL	.	4.ryy	.
.	.	.	.	16cc#X\	.	.	.
!	!	!	!	!	!LO:HP:b	!	!
.	.	.	.	16dd\	<	.	.
.	.	.	.	16ff#\	.	.	.
8r	.	8r	.	16aa\	.	.	.
.	.	.	.	16cccn\JJ	[	.	.
!	!	!	!	!	!	!LO:LB:g=original	!
=76||	=76||	=76||	=76||	=76||	=76||	=76||	=76||
*M3/4	*	*M3/4	*	*M3/4	*	*M3/4	*
!	!	!	!	!	!	!LO:TX:b:t=arco	!
!LO:TX:a:i:t=Andante	!	!LO:TX:a:i:t=Andante	!LO:DY:b:rj	!LO:TX:a:i:t=Andante	!LO:DY:b:rj	!LO:TX:a:i:t=Andante	!LO:DY:b:rj
4GG/	.	4g 4B\	f	4ccc\	f	4.ddd\	mf
8r	.	4r	.	8bb\	.	.	.
!	!LO:DY:b:rj	!	!	!	!	!	!
8d\L	f	.	.	8r	.	(>8eee'\L	.
8d\	.	4r	.	4r	.	8ddd'\	.
8e\J	.	.	.	.	.	8ccc'\J)	.
=77	=77	=77	=77	=77	=77	=77	=77
!	!	!	!LO:DY:b:rj	!	!LO:DY:b:rj	!	!
8e\L	.	2G/	p	(<16B/LL	p	8bb\	.
.	.	.	.	16d/	.	.	.
8f#\	.	.	.	16B/	.	8r	.
.	.	.	.	16d/JJ	.	.	.
8f#\	.	.	.	4B/)	.	8gg\	.
8g\	.	.	.	.	.	8r	.
8g\	.	4r	.	4r	.	8gg\	.
8f#\J	.	.	.	.	.	8r	.
!	!	!LO:LB:g=original	!	!LO:LB:g=original	!	!	!
=78	=78	=78	=78	=78	=78	=78	=78
4.c\	.	2D/	.	(<16f#/LL	.	8aa\	.
.	.	.	.	16a/	.	.	.
.	.	.	.	16f#/	.	8r	.
.	.	.	.	16a/JJ)	.	.	.
.	.	.	.	4f#/	.	8dd\	.
8c\L	.	.	.	.	.	8r	.
8c\	.	4r	.	4r	.	8dd\	.
8d\J	.	.	.	.	.	8r	.
!LO:LB:g=original	!	!	!	!	!	!	!
=79	=79	=79	=79	=79	=79	=79	=79
*	*	*rep	*	*	*	*	*
8d\L	.	2D/	.	(<16f#/LL	.	4r	.
.	.	.	.	16a/	.	.	.
8e\	.	.	.	16cc/	.	.	.
.	.	.	.	16a/JJ)	.	.	.
8e\	.	.	.	4cc\	.	4r	.
8f#\	.	.	.	.	.	.	.
8g\	.	4r	.	4r	.	8r	p
8f#\J	.	.	.	.	.	(>16cc\LL	.
.	.	.	.	.	.	16gg\JJ)	.
*	*	*Xrep	*	*	*	*	*
!	!	!	!	!	!	!LO:LB:g=original	!
=80	=80	=80	=80	=80	=80	=80	=80
4.B\	.	2G/	.	(<16d/LL	.	8gg'\L	.
.	.	.	.	16g/	.	.	.
.	.	.	.	16b/	.	8ff#'\J	.
.	.	.	.	16g/JJ)	.	.	.
.	.	.	.	.	.	(<8qff#/	.
.	.	.	.	4d/	.	4b\)	.
8d\L	.	.	.	.	.	.	.
8d\	.	4r	.	4r	.	4r	.
8e\J	.	.	.	.	.	.	.
=81	=81	=81	=81	=81	=81	=81	=81
!LO:TX:a:i:t=largamente	!	!	!	!	!	!LO:TX:a:t=2	!
8e\L	.	2G/	.	(<16B/LL	.	1.r	.
.	.	.	.	16d/	.	.	.
8f#\	.	.	.	16B/	.	.	.
.	.	.	.	16d/JJ)	.	.	.
8f#\	.	.	.	4B/	.	.	.
8g\	.	.	.	.	.	.	.
8g\	.	4E/	.	(<16B/LL	.	.	.
.	.	.	.	16A#X/	.	.	.
8f#\J	.	.	.	16B/	.	.	.
.	.	.	.	16c#X/JJ)	.	.	.
=82	=82	=82	=82	=82	=82	=82	=82
4.f#\	.	2F#/	.	(<16d/LL	.	.	.
.	.	.	.	16B/	.	.	.
.	.	.	.	16d/	.	.	.
.	.	.	.	16B/JJ	.	.	.
.	.	.	.	4d/)	.	.	.
8f#\L	.	.	.	.	.	.	.
8f#\	.	4r	.	4r	.	.	.
8e\J	.	.	.	.	.	.	.
!	!	!	!	!LO:PB:g=original	!	!	!
=83	=83	=83	=83	=83	=83	=83	=83
*	*	*rep	*	*	*	*	*
8e\L	.	2F#/	.	(<16A#X/LL	.	4.fff#\	mf
.	.	.	.	16c#X/	.	.	.
8e\	.	.	.	16A#/	.	.	.
.	.	.	.	16c#/JJ	.	.	.
8e\	.	.	.	4A#/)	.	.	.
8e\	.	.	.	.	.	(>8ggg'\L	.
8d\	.	4r	.	4r	.	8fff#'\	.
8c#X\J	.	.	.	.	.	8eee'\J)	.
*	*	*Xrep	*	*	*	*	*
!LO:LB:g=original	!	!	!	!	!	!	!
=84	=84	=84	=84	=84	=84	=84	=84
[>4d\	.	[<4B/	.	(<16d/LL	.	8ddd\	.
.	.	.	.	16f#/	.	.	.
.	.	.	.	16b/	.	8r	.
.	.	.	.	16g/JJ)	.	.	.
8d\]	.	8B/]	.	8f#/	.	8bb\	.
8r	.	8r	.	8r	.	8r	.
!	!	!	!LO:DY:b	!	!	!	!
4r	.	4dd\	mf	4r	.	8bb\	.
.	.	.	.	.	.	8r	.
=85||	=85||	=85||	=85||	=85||	=85||	=85||	=85||
!LO:TX:a:i:t=Tempo di Valse	!LO:DY:b:rj	!LO:TX:a:i:t=Tempo di Valse	!	!LO:TX:a:i:t=Tempo di Valse	!	!LO:TX:a:i:t=Tempo di Valse	!
4GG/	p	4ee'\	.	4r	.	4r	.
!	!	!	!	!	!LO:DY:b:rj	!	!LO:DY:b:rj
4r	.	4r	.	4d 4B'/	p	4g'/	p
4r	.	4ff#'\	.	4d 4B'/	.	4g'/	.
!	!	!LO:LB:g=original	!	!	!	!	!
=86	=86	=86	=86	=86	=86	=86	=86
*rep	*	*	*	*rep	*	*rep	*
4GG/	.	4gg'\	.	4r	.	4r	.
4r	.	4r	.	4d 4B'/	.	4g'/	.
4r	.	4ff#'\	.	4d 4B'/	.	4g'/	.
*Xrep	*	*	*	*Xrep	*	*Xrep	*
!	!	!	!	!	!	!LO:LB:g=original	!
=87	=87	=87	=87	=87	=87	=87	=87
.	.	(<8qee/	.	.	.	.	.
4AA/	.	[>2.cc\)	.	4r	.	4r	.
4r	.	.	.	4d 4c/	.	4f#'/	.
4r	.	.	.	4d 4c/	.	4f#'/	.
=88	=88	=88	=88	=88	=88	=88	=88
*rep	*	*	*	*rep	*	*rep	*
4AA/	.	4cc\]	.	4r	.	4r	.
4r	.	4r	.	4d 4c/	.	4f#'/	.
4r	.	4cc\	.	4d 4c/	.	4f#'/	.
*Xrep	*	*	*	*Xrep	*	*Xrep	*
=89	=89	=89	=89	=89	=89	=89	=89
*	*	*	*	*rep	*	*rep	*
4DD/	.	4dd\	.	4r	.	4r	.
4r	.	4r	.	4d 4c/	.	4f#'/	.
4r	.	4ee\	.	4d 4c/	.	4f#'/	.
*	*	*	*	*Xrep	*	*Xrep	*
=90	=90	=90	=90	=90	=90	=90	=90
*rep	*	*	*	*rep	*	*rep	*
4DD/	.	4ff#\	.	4r	.	4r	.
4r	.	4r	.	4d 4c/	.	4f#'/	.
4r	.	4ee\	.	4d 4c/	.	4f#'/	.
*Xrep	*	*	*	*Xrep	*	*Xrep	*
!	!	!	!	!LO:LB:g=original	!	!	!
=91	=91	=91	=91	=91	=91	=91	=91
.	.	(<8qee/	.	.	.	.	.
4GG/	.	[>2.b\)	.	4r	.	4r	.
4r	.	.	.	4d 4B'/	.	4g'/	.
4r	.	.	.	4d 4B'/	.	4g'/	.
!LO:LB:g=original	!	!	!	!	!	!	!
=92	=92	=92	=92	=92	=92	=92	=92
4GG/	.	4b\]	.	4r	.	4r	.
4r	.	4r	.	4g'/	.	4d 4B'/	.
4r	.	4r	.	4g'/	.	4d 4B'/	.
=93	=93	=93	=93	=93	=93	=93	=93
*rep	*	*	*	*	*	*rep	*
!	!	!	!	!	!LO:DY:b	!	!
4GG/	.	2.fn\	.	8b\L	mf	4r	.
.	.	.	.	8ee\J	.	.	.
4r	.	.	.	4ee\	.	4d 4B'/	.
4r	.	.	.	4b\	.	4d 4B'/	.
*Xrep	*	*	*	*	*	*Xrep	*
=94	=94	=94	=94	=94	=94	=94	=94
.	.	.	.	(<8qdd/	.	.	.
4D\	.	2f#X\	.	8cc\L)	.	4r	.
.	.	.	.	8b\J	.	.	.
4r	.	.	.	4cc\	.	4d 4c/	.
4r	.	4r	.	4cc#X\	.	4f# 4d/	.
!	!	!LO:PB:g=original	!	!	!	!	!
=95	=95	=95	=95	=95	=95	=95	=95
4D\	.	4a 4c\	.	8dd\L	.	4f# 4d/	.
!	!	!	!	!	!LO:HP:b	!	!
.	.	.	.	8cc#X\	<	.	.
4r	.	4r	.	8dd\	.	4r	.
.	.	.	.	8ff#\	.	.	.
4r	.	4r	.	8aa\	.	4r	.
.	.	.	.	8cccn\J	[	.	.
!	!	!	!	!LO:LB:g=original	!	!LO:PB:g=original	!
=96||	=96||	=96||	=96||	=96||	=96||	=96||	=96||
*M6/8	*	*M6/8	*	*M6/8	*	*M6/8	*
!	!	!LO:TX:a:i:t=Allegretto	!	!	!	!	!
!LO:TX:a:i:t=Allegretto	!LO:DY:b:rj	!LO:TX:b:i:t=pizz	!LO:DY:b:rj	!LO:TX:a:i:t=Allegretto	!LO:DY:b:rj	!LO:TX:a:i:t=Allegretto	!
4GG/	p	4d 4B/	p	4ccc\	f	2.r	.
8r	.	8r	.	8r	.	.	.
!	!	!	!	!	!	!LO:TX:a:t=1.	!
4DD/	.	4d 4B/	.	4bb\	.	.	.
8r	.	8r	.	8r	.	.	.
=97	=97	=97	=97	=97	=97	=97	=97
*rep	*	*rep	*	*	*	*	*
!	!	!	!	!	!	!	!LO:DY:b
4GG/	.	4d 4B/	.	4r	.	4r	mf
8r	.	8r	.	8r	.	8dd\	.
.	.	.	.	.	.	(<8qee/	.
!	!	!	!	!LO:TX:b:i:t=pizz	!LO:DY:b:rj	!	!
4DD/	.	4d 4B/	.	4g/	p	(>8dd\L)	.
.	.	.	.	.	.	8cc#X\	.
8r	.	8r	.	8r	.	8dd\J)	.
*Xrep	*	*Xrep	*	*	*	*	*
=98	=98	=98	=98	=98	=98	=98	=98
4AA/	.	4d 4c\	.	4f# 4A/	.	8ee\	.
.	.	.	.	.	.	8r	.
8r	.	8r	.	8r	.	(>8ee\	.
4DD/	.	4d 4c\	.	4f# 4A/	.	[<4.f#/)	.
8r	.	8r	.	8r	.	.	.
=99	=99	=99	=99	=99	=99	=99	=99
*rep	*	*rep	*	*rep	*	*	*
4AA/	.	4d 4c\	.	4f# 4A/	.	4f#/]	.
8r	.	8r	.	8r	.	(>8cc\	.
4DD/	.	4d 4c\	.	4f# 4A/	.	4b/	.
8r	.	8r	.	8r	.	8a#X/)	.
*Xrep	*	*Xrep	*	*Xrep	*	*	*
!LO:PB:g=original	!	!	!	!	!	!	!
=100	=100	=100	=100	=100	=100	=100	=100
4GG/	.	4d 4B\	.	4g 4G/	.	[>2.b\	.
8r	.	8r	.	8r	.	.	.
4DD/	.	4d 4B\	.	4g 4G/	.	.	.
8r	.	8r	.	8r	.	.	.
=101	=101	=101	=101	=101	=101	=101	=101
*rep	*	*rep	*	*rep	*	*	*
4GG/	.	4d 4B\	.	4g 4G/	.	8b\]	.
.	.	.	.	.	.	8r	.
8r	.	8r	.	8r	.	8dd\	.
.	.	.	.	.	.	(<8qee/	.
4DD/	.	4d 4B\	.	4g 4G/	.	(>8dd\L)	.
.	.	.	.	.	.	8cc#X\	.
8r	.	8r	.	8r	.	8dd\J)	.
*Xrep	*	*Xrep	*	*Xrep	*	*	*
!	!	!LO:LB:g=original	!	!LO:LB:g=original	!	!LO:LB:g=original	!
=102	=102	=102	=102	=102	=102	=102	=102
4AA/	.	4d 4c\	.	4f# 4A/	.	8ee\	.
.	.	.	.	.	.	8r	.
8r	.	8r	.	8r	.	(8ee\	.
4DD/	.	4d 4c\	.	4f# 4A/	.	[<4.f#/)	.
8r	.	8r	.	8r	.	.	.
=103	=103	=103	=103	=103	=103	=103	=103
*rep	*	*rep	*	*rep	*	*	*
4AA/	.	4d 4c\	.	4f# 4A/	.	4f#/]	.
8r	.	8r	.	8r	.	8cc\	.
4DD/	.	4d 4c\	.	4f# 4A/	.	(>8cc\L	.
.	.	.	.	.	.	8b\	.
8r	.	8r	.	8r	.	8a#X\J)	.
*Xrep	*	*Xrep	*	*Xrep	*	*	*
=104	=104	=104	=104	=104	=104	=104	=104
4GG/	.	4d 4B\	.	4g 4G/	.	[>4.b\	.
8r	.	8r	.	8r	.	.	.
4DD/	.	4d 4B\	.	4g 4G/	.	4b\]	.
8r	.	8r	.	8r	.	8r	.
=105	=105	=105	=105	=105	=105	=105	=105
4GG/	.	4d 4B\	.	4g 4G/	.	8r	.
.	.	.	.	.	.	8b\L	.
8r	.	8r	.	8r	.	8cc\J	.
4r	.	4r	.	4r	.	(>8dd\L	.
.	.	.	.	.	.	8b\)	.
8r	.	8r	.	8r	.	8a\J	.
!LO:LB:g=original	!	!	!	!	!	!	!
=106	=106	=106	=106	=106	=106	=106	=106
4BB/	.	4e 4G#X/	.	4g#X 4d/	.	4.g#X/	.
8r	.	8r	.	8r	.	.	.
4EE/	.	4e 4G#/	.	4g# 4d/	.	(>4b\	.
8r	.	8r	.	8r	.	8cc\)	.
=107	=107	=107	=107	=107	=107	=107	=107
*rep	*	*rep	*	*rep	*	*	*
4BB/	.	4e 4G#X/	.	4g#X 4d/	.	4.dd\	.
8r	.	8r	.	8r	.	.	.
4EE/	.	4e 4G#/	.	4g# 4d/	.	(>4cc\	.
8r	.	8r	.	8r	.	8b\)	.
*Xrep	*	*Xrep	*	*Xrep	*	*	*
!	!	!	!	!	!	!LO:LB:g=original	!
=108	=108	=108	=108	=108	=108	=108	=108
4AA/	.	4e 4A\	.	4a 4c/	.	[>4.cc\	.
8r	.	8r	.	8r	.	.	.
4EE/	.	4e 4A\	.	4a 4c/	.	4cc\]	.
8r	.	8r	.	8r	.	8r	.
=109	=109	=109	=109	=109	=109	=109	=109
4AA/	.	4e 4A\	.	4a 4c/	.	8r	.
.	.	.	.	.	.	8cc\L	.
8r	.	8r	.	8r	.	8dd\J	.
4r	.	4r	.	4r	.	(>8ee\L	.
.	.	.	.	.	.	8cc\)	.
8r	.	8r	.	8r	.	8b\J	.
!	!	!LO:LB:g=original	!	!LO:LB:g=original	!	!	!
=110	=110	=110	=110	=110	=110	=110	=110
4C#X/	.	4f# 4A#X\	.	4a#X 4e/	.	4.a#X/	.
8r	.	8r	.	8r	.	.	.
4FF#/	.	4f# 4A#\	.	4a# 4e/	.	(>4cc#X\	.
8r	.	8r	.	8r	.	8dd\)	.
=111	=111	=111	=111	=111	=111	=111	=111
*rep	*	*rep	*	*rep	*	*	*
4C#X/	.	4f# 4A#X\	.	4a#X 4e/	.	4.ee\	.
8r	.	8r	.	8r	.	.	.
4FF#/	.	4f# 4A#\	.	4a# 4e/	.	(>4dd\	.
8r	.	8r	.	8r	.	8cc#X\)	.
*Xrep	*	*Xrep	*	*Xrep	*	*	*
!LO:LB:g=original	!	!	!	!	!	!	!
=112	=112	=112	=112	=112	=112	=112	=112
4BB/	.	4f# 4B\	.	4b 4d/	.	[>4.dd\	.
8r	.	8r	.	8r	.	.	.
4F# 4BB^^>\	.	4f# 4B^^>\	.	4b 4d^^>/	.	4dd\]	.
8r	.	8r	.	8r	.	8r	.
=113	=113	=113	=113	=113	=113	=113	=113
4r	.	2.r	.	2.r	.	2.r	.
!LO:TX:b:i:t=arco	!LO:DY:b:rj	!	!	!	!	!	!
8d\	f	.	.	.	.	.	.
!	!	!LO:TX:a:t=1.	!	!LO:TX:a:t=1.	!	!LO:TX:a:t=1.	!
(<8qe/	.	.	.	.	.	.	.
(>8d\L)	.	.	.	.	.	.	.
8c#X\	.	.	.	.	.	.	.
8d\J)	.	.	.	.	.	.	.
!	!	!	!	!	!	!LO:LB:g=original	!
=114	=114	=114	=114	=114	=114	=114	=114
!	!	!LO:TX:a:t=arco	!LO:DY:b:rj	!LO:TX:a:i:t=arco	!LO:DY:b:rj	!	!LO:DY:b:rj
8e\	.	4D/	p	4c/	p	4f#/	p
8r	.	.	.	.	.	.	.
8e\	.	8r	.	8r	.	8r	.
[>4.F#\	.	4r	.	4r	.	4r	.
.	.	8r	.	8r	.	8r	.
=115||	=115||	=115||	=115||	=115||	=115||	=115||	=115||
*M2/4	*	*M2/4	*	*M2/4	*	*M2/4	*
!	!	!LO:TX:a:i:t=Tempo di Polka	!	!LO:TX:a:i:t=Tempo di Polka	!	!LO:TX:a:i:t=Tempo di Polka	!
4F#;>\]	.	4r;>	.	4r;>	.	4r;	.
!LO:TX:a:i:t=Tempo di Polka	!	!	!LO:DY:b	!	!	!	!
.	.	(<8qc/	mf	.	.	.	.
4r	.	8e'\L)	.	4r	.	4r	.
.	.	(<8qc/	.	.	.	.	.
.	.	8e'\J)	.	.	.	.	.
!LO:LB:g=original	!	!LO:LB:g=original	!	!	!	!	!
=116	=116	=116	=116	=116	=116	=116	=116
.	.	(<8qc/	.	.	.	.	.
!	!LO:DY:b:rj	!	!	!	!	!	!
8DD/	p	8e/L)	.	8r	.	8r	.
!	!	!	!	!	!LO:DY:b:rj	!	!LO:DY:b:rj
8r	.	16r	.	8c/	p	8d/	p
.	.	16F#'/Jk	.	.	.	.	.
8DD/	.	8F#'/L	.	8r	.	8r	.
8r	.	8F#'/J	.	8c/	.	8d/	.
!	!	!	!	!LO:LB:g=original	!	!	!
=117	=117	=117	=117	=117	=117	=117	=117
8DD/	.	4F#/	.	8r	.	8r	.
8r	.	.	.	8c/	.	8d/	.
.	.	(<8qc/	.	.	.	.	.
4r	.	8e'\L)	.	4r	.	4r	.
.	.	(<8qc/	.	.	.	.	.
.	.	8e'\J)	.	.	.	.	.
=118	=118	=118	=118	=118	=118	=118	=118
.	.	(<8qB/	.	.	.	.	.
8GG/	.	8e/L)	.	8r	.	8r	.
8r	.	16r	.	8B/	.	8d/	.
.	.	16G'/Jk	.	.	.	.	.
8GG/	.	8G'/L	.	8r	.	8r	.
8r	.	8G'/J	.	8B/	.	8d/	.
!	!	!	!	!	!	!LO:LB:g=original	!
=119||	=119||	=119||	=119||	=119||	=119||	=119||	=119||
*M6/8	*	*M6/8	*	*M6/8	*	*M6/8	*
!	!	!	!	!LO:TX:a:i:t=Allegretto	!	!LO:TX:a:i:t=Allegretto	!
!LO:TX:a:i:t=Allegretto	!	!LO:TX:a:i:t=Allegretto	!	!	!	!	!
8r	.	4G/	.	2.r	.	2.r	.
!	!LO:DY:b:rj	!	!	!	!	!	!
8B\L	f	.	.	.	.	.	.
!	!	!	!	!LO:TX:a:t=1.	!	!LO:TX:a:t=1.	!
8c\J	.	8r	.	.	.	.	.
(>8d\L	.	4r	.	.	.	.	.
8B\)	.	.	.	.	.	.	.
8A\J	.	8r	.	.	.	.	.
=120	=120	=120	=120	=120	=120	=120	=120
!	!	!	!LO:DY:b:rj	!	!LO:DY:b:rj	!	!LO:DY:b:rj
4.G#X\	.	4E/	p	4d/	p	4b\	p
.	.	8r	.	8r	.	8r	.
(>4B\	.	4r	.	4r	.	4r	.
8c\)	.	8r	.	8r	.	8r	.
!LO:LB:g=original	!	!LO:LB:g=original	!	!	!	!	!
=121	=121	=121	=121	=121	=121	=121	=121
4.d\	.	4E/	.	4B/	.	4g#X/	.
.	.	8r	.	8r	.	8r	.
(>4c\	.	4r	.	4r	.	4r	.
8B\)	.	8r	.	8r	.	8r	.
=122	=122	=122	=122	=122	=122	=122	=122
4c\	.	4A/	.	4c/	.	4a 4e/	.
8r	.	8r	.	8r	.	8r	.
!	!	!	!	!	!	!	!LO:DY:b:rj
[>4.c^^>\	.	4r	.	4r	.	[>4.cc^^>\	f
.	.	8r	.	8r	.	.	.
=123	=123	=123	=123	=123	=123	=123	=123
!	!	!LO:TX:b:i:t=riten	!	!LO:TX:b:i:t=riten.	!	!	!
!	!	!	!	!	!	!LO:TX:a:i:t=riten	!
8c\L]	.	2.r	.	2.r	.	8cc\L]	.
!LO:TX:b:i:t=riten	!	!	!	!	!	!	!
8c\	.	.	.	.	.	8cc\	.
!	!	!LO:TX:a:t=1.	!	!LO:TX:a:t=1.	!	!	!LO:HP:b
8d\J	.	.	.	.	.	8dd\J	>
!	!LO:HP:b	!	!	!	!	!	!
8e\L	>	.	.	.	.	8ee\L	.
8c\	.	.	.	.	.	8cc\	.
8A\J	]]	.	.	.	.	8a\J	]]
!	!	!	!	!LO:LB:g=original	!	!	!
=124	=124	=124	=124	=124	=124	=124	=124
!LO:TX:a:i:t=a tempo	!	!LO:TX:a:i:t=a tempo	!LO:DY:b:rj	!LO:TX:a:t=a tempo	!	!	!LO:DY:b
4G\	.	4C/	p	8r	.	[<4.g/	mf
!	!	!	!	!	!LO:DY:b:rj	!	!
.	.	.	.	8eL 8c/	p	.	.
8r	.	8r	.	8eJ 8c/	.	.	.
!	!LO:DY:b:rj	!	!	!	!	!	!
4GG/	p	4G/	.	8r	.	4g/]	.
*	*	*	*	*tremolo	*	*	*
.	.	.	.	8eL 8c/	.	.	.
8r	.	8r	.	8eJ 8c/	.	(<8e/	.
!LO:LB:g=original	!	!	!	!	!	!LO:LB:g=original	!
=125	=125	=125	=125	=125	=125	=125	=125
4D\	.	8r	.	8r	.	[<4.g/)	.
.	.	8B/L	.	8fn/L	.	.	.
8r	.	8B/J	.	8f/J	.	.	.
4GG/	.	8r	.	8r	.	4g/]	.
*	*	*tremolo	*	*	*	*	*
.	.	8Fn'/L	.	8B/L	.	.	.
8r	.	8F'/J	.	8B/J	.	8d/	.
=126	=126	=126	=126	=126	=126	=126	=126
4C/	.	8r	.	8r	.	[<2.e/	.
.	.	8GL 8E/	.	8c/L	.	.	.
8r	.	8GJ 8E/	.	8c/J	.	.	.
4GG/	.	8r	.	8r	.	.	.
.	.	8GL 8E/	.	8c/L	.	.	.
8r	.	8GJ 8E/	.	8c/J	.	.	.
*	*	*Xtremolo	*	*Xtremolo	*	*	*
!	!	!LO:LB:g=original	!	!	!	!	!
=127	=127	=127	=127	=127	=127	=127	=127
8CC/	.	8G 8E/	.	8c/	.	8e/L]	.
8r	.	8r	.	8r	.	8cc/	.
8r	.	8r	.	8r	.	8dd/J	.
4r	.	4r	.	4r	.	8ee\L	.
.	.	.	.	.	.	8cc\	.
8r	.	8r	.	8r	.	8b\J	.
=128	=128	=128	=128	=128	=128	=128	=128
4CC#X/	.	4f#X 4A#X\	.	4e/	.	4.a#X/	.
8r	.	8r	.	8r	.	.	.
4FF#X/	.	4f# 4A#\	.	4a#X 4e/	.	(>4cc#X\	.
8r	.	8r	.	8r	.	8dd\)	.
!	!	!	!	!LO:LB:g=original	!	!	!
=129	=129	=129	=129	=129	=129	=129	=129
*	*	*rep	*	*	*	*	*
4C#X/	.	4f#X 4A#X\	.	4a#X 4e/	.	4.ee\	.
8r	.	8r	.	8r	.	.	.
4FF#/	.	4f# 4A#\	.	4a# 4e/	.	(>4dd\	.
8r	.	8r	.	8r	.	8cc#X\)	.
*	*	*Xrep	*	*	*	*	*
!LO:LB:g=original	!	!	!	!	!	!	!
=130	=130	=130	=130	=130	=130	=130	=130
4BB/	.	4f# 4B\	.	4b 4d/	.	[>2.dd\	.
8r	.	8r	.	8r	.	.	.
4BB/	.	4f# 4B\	.	4b 4d/	.	.	.
8r	.	8r	.	8r	.	.	.
!	!	!	!	!	!	!LO:LB:g=original	!
=131	=131	=131	=131	=131	=131	=131	=131
!LO:TX:a:t=P:problem:"E" zapisane niebieską kredką	!	!LO:TX:a:t=P:problem:"E" zapisane niebieską kredką	!	!	!	!LO:TX:a:t=P:problem:"E" zapisane niebieską kredką	!
!LO:TX:a:i:t=E:color=blue	!	!LO:TX:a:i:t=E:color=blue	!	!	!	!LO:TX:a:t=E:color=blue	!
4AA/	.	4f# 4cn\	.	4ccn 4d/	.	4dd\]	.
!	!	!	!	!LO:TX:a:t=P:problem:"E" zapisane niebieską kredką	!	!	!
!	!	!	!	!LO:TX:a:i:t=E:color=blue	!	!	!
8r	.	8r	.	8r	.	8dd\	.
!	!	!	!	!	!	!	!LO:HP:b
.	.	.	.	.	.	(<8qee/	<
4r	.	4r	.	4r	.	(>8dd\L)	.
.	.	.	.	.	.	8cc#X\	.
8r	.	8r	.	8r	.	8dd\J)	[[
=132	=132	=132	=132	=132	=132	=132	=132
!	!LO:DY:b:rj	!	!LO:DY:b:rj	!	!LO:DY:b:rj	!	!LO:DY:b
4GG/	f	4g 4B\	f	4b 4d/	f	8gg\	f
.	.	.	.	.	.	8r	.
8r	.	8r	.	8r	.	8dd\	.
4DD/	.	4g 4B\	.	4b 4d/	.	[>4.b\	.
8r	.	8r	.	8r	.	.	.
=133	=133	=133	=133	=133	=133	=133	=133
*rep	*	*rep	*	*rep	*	*	*
4GG/	.	4g 4B\	.	4b 4d/	.	4b\]	.
8r	.	8r	.	8r	.	8b\	.
4DD/	.	4g 4B\	.	4b 4d/	.	4a#X/	.
8r	.	8r	.	8r	.	8b/	.
*Xrep	*	*Xrep	*	*Xrep	*	*	*
!	!	!LO:LB:g=original	!	!	!	!	!
=134	=134	=134	=134	=134	=134	=134	=134
*rep	*	*	*	*rep	*	*	*
4GG/	.	4g 4B\	.	4b 4d/	.	4dd\	.
8r	.	8r	.	8r	.	8b\	.
4DD/	.	4g 4B\	.	4b 4d/	.	[<4.g/	.
8r	.	8r	.	8r	.	.	.
*Xrep	*	*	*	*Xrep	*	*	*
!	!	!	!	!LO:LB:g=original	!	!LO:LB:g=original	!
=135	=135	=135	=135	=135	=135	=135	=135
4GG/	.	4g 4B\	.	4b 4d/	.	8g/L]	.
.	.	.	.	.	.	8a/	.
8r	.	8r	.	8r	.	8b/J	.
4r	.	4r	.	4r	.	(>4b\	.
8r	.	8r	.	8r	.	8cc#X\)	.
!LO:LB:g=original	!	!	!	!	!	!	!
=136	=136	=136	=136	=136	=136	=136	=136
4AA/	.	4f# 4A\	.	4a 4d/	.	(>4dd\	.
8r	.	8r	.	8r	.	8ee\)	.
4r	.	4r	.	4r	.	(>4ff#\	.
8r	.	8r	.	8r	.	8gg\)	.
=137	=137	=137	=137	=137	=137	=137	=137
4r	.	4r	.	4r	.	4aa\	.
8r	.	8r	.	8r	.	8r	.
4c#X 4E 4AA\	.	4a 4c#X 4E\	.	4ee 4g\	.	4aa 4cc#X\	.
!	!	!	!	!	!	!LO:TX:b:i:t=V. S.	!
8r;>	.	8r;>	.	8r;>	.	8r;>	.
!LO:TX:b:i:t=V. S.	!	!	!	!LO:TX:b:i:t=V. S.	!	!	!
!LO:PB:g=original	!	!	!	!LO:PB:g=original	!	!LO:PB:g=original	!
=138||	=138||	=138||	=138||	=138||	=138||	=138||	=138||
*k[f#c#]	*	*k[f#c#]	*	*k[f#c#]	*	*k[f#c#]	*
*M3/4	*	*M3/4	*	*M3/4	*	*M3/4	*
!	!	!LO:TX:a:i:t=Moderato	!	!	!	!	!
!LO:TX:a:i:t=Moderato	!LO:DY:b:rj	!LO:TX:a:t=4	!	!LO:TX:a:i:t=Moderato	!LO:DY:b:rj	!LO:TX:a:i:t=Moderato	!LO:DY:b:rj
(>2f#\	p	0.r	.	[<2.a/	p	4aa\	p
.	.	.	.	.	.	4aa\	.
4e\)	.	.	.	.	.	(>16aa\LL	.
.	.	.	.	.	.	16gg\	.
.	.	.	.	.	.	16ff#\	.
.	.	.	.	.	.	16gg\JJ)	.
=139	=139	=139	=139	=139	=139	=139	=139
(2d\	.	.	.	2.a/]	.	4ff#\	.
.	.	.	.	.	.	4ff#\	.
4e\)	.	.	.	.	.	(>16aa\LL	.
.	.	.	.	.	.	16gg\	.
.	.	.	.	.	.	16ff#\	.
.	.	.	.	.	.	16gg\JJ)	.
=140	=140	=140	=140	=140	=140	=140	=140
(>2f#\	.	.	.	[<2.a/	.	4aa\	.
.	.	.	.	.	.	4aa\	.
4e\)	.	.	.	.	.	(>16aa\LL	.
.	.	.	.	.	.	16gg\	.
.	.	.	.	.	.	16ff#\	.
.	.	.	.	.	.	16gg\JJ)	.
=141	=141	=141	=141	=141	=141	=141	=141
(>2d\	.	.	.	2.a/]	.	4ff#\	.
.	.	.	.	.	.	4ff#\	.
!	!	!LO:TX:b:i:t=V. S.	!	!	!	!	!
4e\)	.	.	.	.	.	(>16aa\LL	.
.	.	.	.	.	.	16gg\	.
.	.	.	.	.	.	16ff#\	.
.	.	.	.	.	.	16gg\JJ)	.
!	!	!LO:LB:g=original	!	!	!	!LO:LB:g=original	!
=142	=142	=142	=142	=142	=142	=142	=142
!	!	!	!LO:DY:b:rj	!	!	!	!
[>2.d\	.	(>2f#\	p	2.dd\	.	2aa\	.
.	.	.	.	.	.	(<16qqbb/LL	.
.	.	.	.	.	.	16qqccc#/JJ	.
.	.	4b\)	.	.	.	4ddd\)	.
=143	=143	=143	=143	=143	=143	=143	=143
*	*	*rep	*	*rep	*	*rep	*
2.d\]	.	(>2f#\	.	2.dd\	.	2aa\	.
.	.	.	.	.	.	(<16qqbb/LL	.
.	.	.	.	.	.	16qqccc#/JJ	.
.	.	4b\)	.	.	.	4ddd\)	.
*	*	*Xrep	*	*Xrep	*	*Xrep	*
=144	=144	=144	=144	=144	=144	=144	=144
*	*	*rep	*	*rep	*	*rep	*
[>2.d\	.	(>2f#\	.	2.dd\	.	2aa\	.
.	.	.	.	.	.	(<16qqbb/LL	.
.	.	.	.	.	.	16qqccc#/JJ	.
.	.	4b\)	.	.	.	4ddd\)	.
*	*	*Xrep	*	*Xrep	*	*Xrep	*
!LO:LB:g=original	!	!	!	!	!	!	!
=145	=145	=145	=145	=145	=145	=145	=145
2d\]	.	2f#\	.	2dd\	.	2aa\	.
!	!	!	!	!	!	!	!LO:HP:b
4r	.	4r	.	4r	.	(>8aa\L	<
.	.	.	.	.	.	8gg#X\J)	[[
!	!	!	!	!LO:LB:g=original	!	!	!
=146||	=146||	=146||	=146||	=146||	=146||	=146||	=146||
!LO:TX:b:t=pizz	!	!	!	!	!	!	!LO:DY:b
!LO:TX:a:i:t=Poco piú mosso	!	!LO:TX:a:i:t=Poco piú mosso	!LO:DY:b:rj	!LO:TX:a:i:t=Poco piú mosso	!	!LO:TX:a:i:t=Poco piú mosso	!
4A\	.	8e\L	mf	4cc# 4e/	.	8ggn\	mf
!	!	!LO:TX:b:i:t=marcato	!	!	!	!	!
.	.	8g\J	.	.	.	8r	.
4r	.	4.b\	.	4r	.	8gg\	.
.	.	.	.	.	.	8r	.
4r	.	.	.	4r	.	8gg\	.
.	.	8e\	.	.	.	8r	.
=147	=147	=147	=147	=147	=147	=147	=147
!	!	!LO:TUP:b:problem:klamra łukowa	!	!	!	!	!
4D\	.	12g\L	.	4dd 4d/	.	4ff#\	.
.	.	12a\	.	.	.	.	.
.	.	12g\J	.	.	.	.	.
4r	.	4f#\	.	4r	.	8f#'/L	.
.	.	.	.	.	.	8a'/	.
4r	.	4a\	.	4r	.	8f#'/	.
.	.	.	.	.	.	8a'/J	.
!	!	!LO:LB:g=original	!	!	!	!LO:LB:g=original	!
=148	=148	=148	=148	=148	=148	=148	=148
4A\	.	8e\L	.	4cc# 4e/	.	8ee\	.
.	.	8g\J	.	.	.	8r	.
4r	.	4.b\	.	4r	.	8ee\	.
.	.	.	.	.	.	8r	.
4r	.	.	.	4r	.	8ee\	.
.	.	8e\	.	.	.	8r	.
=149	=149	=149	=149	=149	=149	=149	=149
!	!	!LO:TUP:b:problem:klamra łukowa	!	!	!	!	!
4D\	.	12g\L	.	4dd 4d/	.	4dd\	.
.	.	12a\	.	.	.	.	.
.	.	12g\J	.	.	.	.	.
4r	.	4f#\	.	4r	.	8a'\L	.
.	.	.	.	.	.	8dd'\	.
4r	.	4d\	.	4r	.	8ff#'\	.
.	.	.	.	.	.	8aa'\J	.
=150	=150	=150	=150	=150	=150	=150	=150
!	!	!	!	!LO:TX:a:i:t=marcato	!LO:DY:b	!	!
4A\	.	4.e\	.	4.a/	mf	8gg\	.
.	.	.	.	.	.	8r	.
4r	.	.	.	.	.	8gg\	.
.	.	8A\L	.	8b'/L	.	8r	.
4r	.	8c#\	.	8a'/	.	8gg\	.
.	.	8e\J	.	8g'/J	.	8r	.
=151	=151	=151	=151	=151	=151	=151	=151
!	!	!LO:TUP:b:problem:klamra łukowa	!	!	!	!	!
4D\	.	12g\L	.	4f#/	.	4ff#\	.
.	.	12a\	.	.	.	.	.
.	.	12g\J	.	.	.	.	.
4r	.	4f#\	.	4d/	.	8f#'/L	.
.	.	.	.	.	.	8a'/	.
4r	.	4a\	.	4d/	.	8f#'/	.
.	.	.	.	.	.	8a'/J	.
!LO:LB:g=original	!	!	!	!	!	!	!
=152	=152	=152	=152	=152	=152	=152	=152
4AA/	.	4.e\	.	4e/	.	8ee\	.
.	.	.	.	.	.	8r	.
4r	.	.	.	4A/	.	8ff#\	.
.	.	8A\L	.	.	.	8r	.
4r	.	8c#\	.	4A/	.	8ee\	.
.	.	8e\J	.	.	.	8r	.
!	!	!LO:LB:g=original	!	!LO:LB:g=original	!	!LO:LB:g=original	!
=153	=153	=153	=153	=153	=153	=153	=153
!LO:TX:b:i:t=arco	!LO:DY:b:rj	!LO:TUP:b:problem:klamra łukowa	!	!	!	!	!
4D\	mf	12g\L	.	4f#/	.	4dd 4f#/	.
.	.	12a\	.	.	.	.	.
.	.	12g\J	.	.	.	.	.
(>4.A\	.	4f#\	.	4d/	.	4r	.
.	.	4d\	.	4d/	.	4r	.
8G#X\)	.	.	.	.	.	.	.
!	!	!	!	!LO:TX:a:t=P:problem:"F" zapisane niebieską kredką	!	!LO:TX:a:t=P:problem:"F" zapisane niebieską kredką	!
!	!	!	!	!LO:TX:a:i:t=F:color=blue	!	!LO:TX:a:i:t=F:color=blue	!
=154	=154	=154	=154	=154	=154	=154	=154
!LO:TX:a:t=P:problem:"F" zapisane niebieską kredką	!	!LO:TX:a:t=P:problem:"F" zapisane niebieską kredką	!	!	!	!	!
!LO:TX:a:i:t=F:color=blue	!	!LO:TX:a:i:t=F:color=blue	!	!	!	!	!
.	.	.	.	.	.	(<8qbb/	.
4Gn 4AA^^>\	.	8e\L	.	4.aa\	.	4aa\)	.
.	.	8g\J	.	.	.	.	.
4G 4AA^^>\	.	4.b\	.	.	.	4r	.
.	.	.	.	8bb\L	.	.	.
.	.	.	.	.	.	(<8qbb/	.
4G 4AA^^>\	.	.	.	8aa\	.	4aa\)	.
.	.	8e\	.	8gg\J	.	.	.
=155	=155	=155	=155	=155	=155	=155	=155
.	.	.	.	.	.	(<8qbb/	.
!	!	!LO:TUP:b:problem:klamra łukowa	!	!	!	!	!
4F# 4AA 4DD^^>/	.	12g\L	.	4ff#\	.	4aa\)	.
.	.	12a\	.	.	.	.	.
.	.	12g\J	.	.	.	.	.
.	.	.	.	.	.	(<8qbb/	.
8FF#'/L	.	8f#\L	.	4dd\	.	4aa\)	.
8AA'/J	.	8d\	.	.	.	.	.
.	.	.	.	.	.	(<8qbb/	.
4D\	.	8f#\	.	4dd\	.	4aa\)	.
.	.	8a\J	.	.	.	.	.
=156	=156	=156	=156	=156	=156	=156	=156
.	.	.	.	.	.	(<8qbb/	.
4E 4AA^^>\	.	8e\L	.	4ee\	.	8aa\L)	.
.	.	8g\J	.	.	.	8gg\J	.
4E 4AA^^>\	.	4.b\	.	4a/	.	4ee\	.
4E 4AA^^>\	.	.	.	4a/	.	8gg\L	.
.	.	8e\	.	.	.	8bb\J	.
!LO:LB:g=original	!	!LO:LB:g=original	!	!	!	!	!
=157	=157	=157	=157	=157	=157	=157	=157
.	.	.	.	.	.	(<8qbb/	.
!	!	!LO:TUP:b:problem:klamra łukowa	!	!	!	!	!
4D\	.	12g\L	.	4ff#\	.	2.aa\)	.
.	.	12a\	.	.	.	.	.
.	.	12g\J	.	.	.	.	.
8AA'\L	.	4f#\	.	4dd\	.	.	.
8D'\	.	.	.	.	.	.	.
8F#'\	.	4d\	.	4dd\	.	.	.
8A'\J	.	.	.	.	.	.	.
!	!	!	!	!	!	!LO:LB:g=original	!
=158	=158	=158	=158	=158	=158	=158	=158
.	.	.	.	.	.	(<8qddd/	.
4G 4AA^^>\	.	4.e\	.	4.aa\	.	8.ccc#\L)	.
.	.	.	.	.	.	16aa\Jk	.
4G 4AA^^>\	.	.	.	.	.	4ccc#\	.
.	.	8A\L	.	8bb\L	.	.	.
4G 4AA^^>\	.	8c#\	.	8aa\	.	8ccc#\L	.
.	.	8e\J	.	8gg\J	.	8eee\J	.
!	!	!	!	!LO:LB:g=original	!	!	!
=159	=159	=159	=159	=159	=159	=159	=159
.	.	.	.	.	.	(<8qeee/	.
!	!	!LO:TUP:b:problem:klamra łukowa	!	!	!	!	!
4F# 4AA 4DD^^>/	.	12g\L	.	4ff#\	.	2ddd\)	.
.	.	12a\	.	.	.	.	.
.	.	12g\J	.	.	.	.	.
8FF#'/L	.	4f#\	.	4dd\	.	.	.
8AA'/J	.	.	.	.	.	.	.
4D\	.	4a\	.	4dd\	.	8ccc#\L	.
.	.	.	.	.	.	8ddd\J	.
=160	=160	=160	=160	=160	=160	=160	=160
4E 4AA^^>/	.	4.e\	.	4ee\	.	8.eee\L	.
.	.	.	.	.	.	16ccc#\Jk	.
4F# 4AA^^>/	.	.	.	4a/	.	4aa\	.
.	.	8A\L	.	.	.	.	.
4E 4AA^^>/	.	8c#\	.	4a/	.	8eee\L	.
.	.	8e\J	.	.	.	8ggg\J	.
=161	=161	=161	=161	=161	=161	=161	=161
!	!	!LO:TUP:b:problem:klamra łukowa	!	!	!	!	!
4D 4AA 4DD^^>/	.	12g\L	.	4dd\	.	4.fff#\	.
!	!	!	!LO:HP:b	!	!	!	!
.	.	12a\	>	.	.	.	.
.	.	12g\J	.	.	.	.	.
4r	.	4f#\	.	4r	.	.	.
!	!	!	!	!	!	!	!LO:HP:b
.	.	.	.	.	.	8ddd\L	>
4r	.	4d\	]]	4r	.	8aa\	.
.	.	.	.	.	.	8gg\J	]]
!LO:LB:g=original	!	!LO:LB:g=original	!	!	!	!LO:LB:g=original	!
=162||	=162||	=162||	=162||	=162||	=162||	=162||	=162||
!LO:TX:a:t=P:problem:"G" zapisane niebieską kredką	!	!LO:TX:a:t=P:problem:"G" zapisane niebieską kredką	!	!LO:TX:a:t=P:problem:"G" zapisane niebieską kredką	!	!LO:TX:a:t=P:problem:"G" zapisane niebieską kredką	!
!LO:TX:a:t=G:color=blue	!	!LO:TX:a:t=G:color=blue	!	!LO:TX:a:t=G:color=blue	!	!LO:TX:a:t=G:color=blue	!LO:DY:b:rj
!LO:TX:a:i:t=Tempo di Mazur	!	!LO:TX:a:i:t=Tempo di Mazur	!LO:DY:b:rj	!LO:TX:a:i:t=Tempo di Mazur	!LO:DY:b:rj	!LO:TX:a:i:t=Tempo di Mazur	!
4F# 4AA 4DD/	p	4d\	p	8.a/L	p	2.ff#\	p
.	.	.	.	16dd/Jk	.	.	.
4r	.	8a\L	.	4dd\	.	.	.
.	.	8b\J	.	.	.	.	.
4r	.	4a\	.	4dd\	.	.	.
=163	=163	=163	=163	=163	=163	=163	=163
4.A\	.	8e\L	.	8.cc#\L	.	(>2gg\	.
.	.	8g\J	.	.	.	.	.
.	.	.	.	16dd\Jk	.	.	.
.	.	4.b\	.	4ee\	.	.	.
8B\L	.	.	.	.	.	.	.
8A\	.	.	.	4cc#\	.	4ee\)	.
8G\J	.	8e\	.	.	.	.	.
!	!	!	!	!LO:LB:g=original	!	!	!
=164	=164	=164	=164	=164	=164	=164	=164
4F#\	.	4.a\	.	8.dd\L	.	[>2.aa\	.
.	.	.	.	16ff#\Jk	.	.	.
2A\	.	.	.	4ee 4cc#\	.	.	.
.	.	8b\L	.	.	.	.	.
.	.	8a\	.	4gg 4ee\	.	.	.
.	.	8g\J	.	.	.	.	.
=165	=165	=165	=165	=165	=165	=165	=165
2.D\	.	4f#\	.	2.ff# 2.dd\	.	4aa\]	.
.	.	4d\	.	.	.	4gg\	.
.	.	4d\	.	.	.	4ff#\	.
=166	=166	=166	=166	=166	=166	=166	=166
4D 4AA 4DD/	.	4f# 4A\	.	8.a\L	.	2.ddd\	.
.	.	.	.	16ff#Jk 16dd\	.	.	.
4r	.	4r	.	4ff# 4dd\	.	.	.
4r	.	4r	.	4ff# 4dd\	.	.	.
!	!	!LO:LB:g=original	!	!	!	!	!
=167	=167	=167	=167	=167	=167	=167	=167
4.A\	.	8e\L	.	8.ee\L	.	(>4ccc#\	.
.	.	8g\J	.	.	.	.	.
.	.	.	.	16ff#\Jk	.	.	.
.	.	.	.	.	.	(<16qqddd/LL	.
.	.	.	.	.	.	16qqccc#/JJ	.
.	.	4.b\	.	4gg\	.	4bb\)	.
8B\L	.	.	.	.	.	.	.
8A\	.	.	.	4ee\	.	4ccc#\)	.
8G\J	.	8e\	.	.	.	.	.
!LO:LB:g=original	!	!	!	!	!	!	!
=168	=168	=168	=168	=168	=168	=168	=168
4F#\	.	4.a 4.d\	.	8.ff#\L	.	2.ddd\	.
.	.	.	.	16aa\Jk	.	.	.
4D\	.	.	.	4gg\	.	.	.
.	.	8b\L	.	.	.	.	.
4D\	.	8a\	.	4bb\	.	.	.
.	.	8g\J	.	.	.	.	.
!	!	!	!	!	!	!LO:LB:g=original	!
=169	=169	=169	=169	=169	=169	=169	=169
2.D\	.	4f#\	.	2.aa\	.	2.ff#\	.
.	.	4d\	.	.	.	.	.
.	.	4d\	.	.	.	.	.
!	!	!	!	!LO:LB:g=original	!	!	!
=170	=170	=170	=170	=170	=170	=170	=170
4.D\	.	2.f#t\	.	8aa\L	.	(>2cccn\	<
.	.	.	.	8ddd\J	.	.	.
.	.	.	.	4ddd\	<	.	.
8E\L	.	.	.	.	.	.	.
!	!LO:HP:a	!	!	!	!	!	!
8D\	<	.	<	4ddd\	.	4aa\)	.
8Cn\J	.	.	.	.	.	.	.
.	.	16qqe/LL	.	.	.	.	.
.	.	16qqf#/JJ	.	.	.	.	.
=171	=171	=171	=171	=171	=171	=171	=171
4BB/	.	2g\	.	8.ddd\L	.	(>4gg\	.
.	.	.	.	16ccc#\Jk	.	.	.
4GG/	.	.	.	4ddd\	.	4bb\	.
4GG/	.	4b\	.	4ddd#X\	.	4gg\)	.
!	!	!LO:LB:g=original	!	!	!	!	!
=172	=172	=172	=172	=172	=172	=172	=172
4EE/	.	2g\	.	8eee\L	.	(>2bb-X\	.
.	.	.	.	8ddd#X\J	.	.	.
4AA/	.	.	.	4eee\	.	.	.
4AA/	.	4e\	.	4aa\	.	4gg\)	.
=173	=173	=173	=173	=173	=173	=173	=173
4D 4AA 4DD/	.	4.a\	.	2.fff#\	.	(>4aa\	.
4r	.	.	.	.	.	4gg\	.
.	.	8b\L	.	.	.	.	.
4r	.	8a\	.	.	.	4ff#\)	.
.	.	8g\J	.	.	.	.	.
!LO:LB:g=original	!	!	!	!	!	!	!
=174	=174	=174	=174	=174	=174	=174	=174
!	!LO:DY:b:rj	!	!LO:DY:b:rj	!	!LO:DY:b:rj	!	!
4D\	f	4f#\	f	8aa\L	f	(>4aa\	f
.	.	.	.	8ddd\J	.	.	.
4r	.	4d\	.	4ddd\	.	2fff#\)	.
4r	.	4d\	.	8ddd\L	.	.	.
.	.	.	.	8ccc#\J	.	.	.
!	!	!	!	!LO:LB:g=original	!	!LO:LB:g=original	!
=175	=175	=175	=175	=175	=175	=175	=175
4GG/	.	4b\	.	8.eee\L	.	(>4ggg\	.
.	.	.	.	16ddd\Jk	.	.	.
4r	.	4g\	.	4bb\	.	4eee\	.
4r	.	4g\	.	4gg\	.	4bb\)	.
=176	=176	=176	=176	=176	=176	=176	=176
.	.	.	.	(<8qgg/	.	.	.
2.AA/	.	4g\	.	8.ff#\L)	.	2.ccc#tt\	.
.	.	.	.	16ee\Jk	.	.	.
.	.	4e\	.	4aa\	.	.	.
.	.	4g\	.	8ee\L	.	.	.
.	.	.	.	8ff#\J	.	.	.
.	.	.	.	.	.	(<16qqbb/LL	.
.	.	.	.	.	.	16qqccc#/JJ)	.
=177	=177	=177	=177	=177	=177	=177	=177
4DD/	.	4f#\	.	4dd\	.	4ddd\	.
4r	.	4d\	.	4r	.	4r	.
4r	.	4d\	.	4r	.	4r	.
!	!	!	!	!	!	!LO:TX:a:t=P:problem:"H" zapisane niebieską kredką	!
!	!	!LO:LB:g=original	!	!	!	!LO:TX:a:i:t=H:color=blue	!
=178	=178	=178	=178	=178	=178	=178	=178
!LO:TX:a:t=P:problem:"H" zapisane niebieską kredką	!	!	!	!	!	!	!
!LO:TX:a:i:t=H:color=blue	!	!	!	!	!	!	!
!LO:TX:a:t=2	!	!	!	!	!	!	!
1.r	.	4.a\	.	8.ff#\L	.	2.ccc#t\	.
.	.	.	.	16ee\Jk	.	.	.
.	.	.	.	4aa\	.	.	.
.	.	8b\L	.	.	.	.	.
.	.	8a\	.	8ee\L	.	.	.
.	.	8g\J	.	8ff#\J	.	.	.
.	.	.	.	.	.	(<16qqbb/LL	.
.	.	.	.	.	.	16qqccc#/JJ)	.
=179	=179	=179	=179	=179	=179	=179	=179
.	.	4f#\	.	4dd\	.	4ddd\	.
.	.	4d\	.	4r	.	4r	.
.	.	4d\	.	4r	.	4r	.
!LO:LB:g=original	!	!	!	!LO:LB:g=original	!	!	!
=180	=180	=180	=180	=180	=180	=180	=180
!	!LO:DY:b:rj	!	!	!	!	!	!
4.A\	f	8f#\L	.	8ee\L	.	2.ccc#tt\	.
.	.	8e\J	.	8gg\J	.	.	.
.	.	4a\	.	4.bb\	.	.	.
8B\L	.	.	.	.	.	.	.
8A\	.	8e\L	.	.	.	.	.
8G\J	.	8g\J	.	8ee\	.	.	.
.	.	.	.	.	.	(<16qqbb/LL	.
.	.	.	.	.	.	16qqccc#/JJ)	.
!	!	!	!	!	!	!LO:LB:g=original	!
=181	=181	=181	=181	=181	=181	=181	=181
!	!	!	!	!LO:TUP:a:problem:klamra łukowa	!	!	!
4F#\	.	4f#\	.	12gg\L	.	4ddd\	.
.	.	.	.	12aa\	.	.	.
.	.	.	.	12gg\J	.	.	.
!LO:TX:b:t=1.	!	!LO:TX:b:t=1.	!	!	!	!	!
4D\	.	4d\	.	8ff#\L	.	4r	.
.	.	.	.	8dd\	.	.	.
4D\	.	4d\	.	8ff#\	.	4r	.
.	.	.	.	8aa\J	.	.	.
=182	=182	=182	=182	=182	=182	=182	=182
*rep	*	*rep	*	*	*	*	*
4F#\	.	4f#\	.	4ddd\	.	4ff# 4a\	.
!LO:TX:b:t=2.	!	!LO:TX:b:t=2	!	!	!	!	!
4D\	.	4d\	.	4r	.	4r	.
4D\	.	4d\	.	4r	.	4r	.
*Xrep	*	*Xrep	*	*	*	*	*
=183	=183	=183	=183	=183	=183	=183	=183
*rep	*	*rep	*	*	*	*	*
4F#\	.	4f#\	.	4ff# 4a 4d/	.	4ddd 4dd 4d\	.
!LO:TX:b:t=3.	!	!LO:TX:b:t=3.	!	!	!	!	!
4D\	.	4d\	.	4r	.	4r	.
4D\	.	4d\	.	4r	.	4r	.
*Xrep	*	*Xrep	*	*	*	*	*
=184	=184	=184	=184	=184	=184	=184	=184
*rep	*	*rep	*	*	*	*	*
4F#\	.	4f#\	.	4d/	.	4d/	.
!LO:TX:b:t=4	!	!LO:TX:b:t=4	!	!	!	!	!
4D\	.	4d\	.	4r	.	4r	.
4D\	.	4d\	.	4r	.	4r	.
*Xrep	*	*Xrep	*	*	*	*	*
!LO:LB:g=original	!	!LO:LB:g=original	!	!LO:LB:g=original	!	!	!
=185	=185	=185	=185	=185	=185	=185	=185
4d 4F# 4AA 4DD\	.	4dd 4f# 4A\	.	4aa 4dd 4d\	.	4fff# 4ff# 4d\	.
4r	.	4r	.	4r	.	4r	.
4r	.	4r	.	4r	.	4r	.
=186	=186	=186	=186	=186	=186	=186	=186
[<2.DD^^>/	.	[<2.F#^^>/	.	[<2.A^^>/	.	[<2.d^^>/	.
=187	=187	=187	=187	=187	=187	=187	=187
2.DD/_<	.	2.F#/_<	.	2.A/_<	.	2.d/_<	.
=188	=188	=188	=188	=188	=188	=188	=188
4DD/]	.	4F#^^>/]	.	4A/]	.	4d^^>/]	.
4r	.	4r	.	4r	.	4r	.
4r	.	4r	.	4r	.	4r	.
==	==	==	==	==	==	==	==
*-	*-	*-	*-	*-	*-	*-	*-
!!!system-decoration: [(s1,s2,s3,s4)]
!!!RDF**dynam: < = "cresc", 'fontstyle="italics"
!!!RDF**kern: > = above
!!!RDF**kern: < = below
!!!EED: Antoni Szymański
!!!EST: 2021-06-09
!!!ENC: Marcin Jachim
!!!END: 2021-05-31
